X:1
T:Maid Of Orleans  "1st"
M:6/8
L:1/8
Q:80
C:Poul Taaensen
S:Slow Air
K:HP
[| {g}f2a{fg}f3 | \
-f6 | \
{g}e2f{g}A3 | \
-A3d3|1
{gGd}G6 | \
-G3{g}B2d | \
{G}A6 |
((3A3A3)e:|2
{gGd}A6 | \
{gf}g3{fg}f3 |
{Gdc}d6 | \
((3d3d2)e|] [ | \
{g}f2e{g}f3 |
((3f3f2)a | \
{fg}f2e{A}e3 | \
e3efg |
{a}g2dd3 | \
d3{G}d2e | \
{g}f6 |
f3f2g | \
{a}f2e{g}f3 | \
f3f2g |
{g}fe{G}ee3 | \
e3e2g | \
{a}fd2d3 |
d3{gf}g3 | \
{a}fedd3 | \
d6|]
